resources/svg/delete-row.svg

<svg fill="currentColor" viewBox="0 0 24 24" xmlns="http://www.w3.org/2000/svg"><path d="M20 5C20.5523 5 21 5.44772 21 6V12C21 12.5523 20.5523 13 20 13C20.628 13.8355 21 14.8743 21 16C21 18.7614 18.7614 21 16 21C13.2386 21 11 18.7614 11 16C11 14.8743 11.372 13.8355 11.9998 12.9998L4 13C3.44772 13 3 12.5523 3 12V6C3 5.44772 3.44772 5 4 5H20ZM13 15V17H19V15H13ZM19 7H5V11H19V7Z"/></svg>

<svg xmlns="http://www.w3.org/2000/svg" viewBox="0 0 24 24" fill="currentColor">
    <g>
        <path fill="none" d="M0 0H24V24H0z"/>
        <path d="M20 5c.552 0 1 .448 1 1v6c0 .552-.448 1-1 1 .628.835 1 1.874 1 3 0 2.761-2.239 5-5 5s-5-2.239-5-5c0-1.126.372-2.165 1-3H4c-.552 0-1-.448-1-1V6c0-.552.448-1 1-1h16zm-7 10v2h6v-2h-6zm6-8H5v4h14V7z"/>
    </g>
</svg>
